!!!!SEGMENT: pl-kk--kk-i-200_anonim--jesu-corona.krn
!!!cenid: 16xx:754
!!!COM: Anonim
!!!COM-rismid: pe30004985
!!!CDT:
!!!CNT:
!!!OTL: Jesu corona
!!!PDT:
!!!AGN: Sacred
!!!SMS-siglum: PL-Kk
!!!SMS-shelfmark: Kk.I.200
!!!SMS-shelfwork: W
!!!SMS-variant:
!!!SMS-altvar:
!!!NIFC-rismid: 1001143703
!!!URL-scan: http://repozytorium.nifc.pl/skany/pl-kk-nut--i-200
!!!ONB-nifc:
**kern	**text	**text	**kern	**text	**kern	**text	**dynam	**kern	**text	**kern	**text
*part5	*part5	*part5	*part4	*part4	*part3	*part3	*part3	*part2	*part2	*part1	*part1
*staff5	*staff5	*staff5	*staff4	*staff4	*staff3	*staff3	*	*staff2	*staff2	*staff1	*staff1
*Iempty	*	*	*Iempty	*	*Itenor	*	*	*Ialto	*	*Ivox	*
*I"Baſso Ripieno.	*	*	*I"Baſso.	*	*I"Tenore	*	*	*I"Alto.	*	*I"Canto.	*
*I'bc	*	*	*I'B	*	*I'T	*	*	*I'A	*	*I'S	*
*clefF4	*	*	*clefF4	*	*clefC4	*	*	*clefC3	*	*clefC1	*
*k[b-]	*	*	*k[b-]	*	*k[b-]	*	*	*k[b-]	*	*k[b-]	*
*F:	*	*	*F:	*	*F:	*	*	*F:	*	*F:	*
*M3/2	*	*	*M3/2	*	*M3/2	*	*	*M3/2	*	*M3/2	*
=1	=1	=1	=1	=1	=1	=1	=1	=1	=1	=1	=1
*2\right	*	*	*2\right	*	*2\right	*	*	*2\right	*	*2\right	*
!LO:TX:t=P:problem:znaki[B- BB-]	!	!	!LO:TX:t=P:problem:znaki[B- BB-]	!	!	!	!	!	!	!LO:TX:a:t=Tutti.	!
2F\	JE-	3 Quo-	2F\	JE-	2c\	JE-	.	2f\	JE-	2a\	JE-
2A\	-SU	-cum-	2A\	-SU	2c\	-SU	.	2f\	-SU	2a\	-SU
2F\	Co-	-q(ue)	2F\	Co-	2c\	Co-	.	2f\	Co-	2a\	Co-
=2	=2	=2	=2	=2	=2	=2	=2	=2	=2	=2	=2
(4c\	-ro-	ten-	(4c\	-ro-	1c	-ro-	.	1e	-ro-	1g	-ro-
4d\	.	.	4d\	.	.	.	.	.	.	.	.
4c\	.	.	4c\)	.	.	.	.	.	.	.	.
4B-\)	.	.	4B-\	.	.	.	.	.	.	.	.
2A\	-na	-dis	2A\	-na	2c\	-na	.	2f\	-na	2a/	-na
=3	=3	=3	=3	=3	=3	=3	=3	=3	=3	=3	=3
*	*	*ij	*	*ij	*	*ij	*	*	*	*	*ij
2B-\	Co-	ten-	2B-\	Co-	2d\	Co-	.	2f\	Co-	2g/	Co-
2c\	-ro-	.	2c\	-ro-	2c\	-ro-	.	2f\	-ro-	2g/	-ro-
2C/	-na	-dis	2C/	-na	2c\	-na	.	2e\	-na	2g/	-na
*	*	*Xij	*	*Xij	*	*Xij	*	*	*	*	*Xij
=4	=4	=4	=4	=4	=4	=4	=4	=4	=4	=4	=4
2.F\	Vir-	Vir-	2.F\	Vir-	2.c\	Vir-	.	2.f\	Vir-	2.a\	vir-
4F\	-gi-	-gi-	4F\	-gi-	4c\	-gi-	.	4f\	-gi-	4a\	-gi-
!	!	!	!LO:TX:t=P:problem:oddech jako rozdzielacz słów:global	!	!LO:TX:t=P:problem:oddech jako rozdzielacz słów:global	!	!	!LO:TX:t=P:problem:oddech jako rozdzielacz słów:global	!	!LO:TX:t=P:problem:oddech jako rozdzielacz słów:global	!
2F\	-n(um)	-nes	2F,<\	-num	2c,<\	-num	.	2f,<\	-num	2a,<\	-num
=5	=5	=5	=5	=5	=5	=5	=5	=5	=5	=5	=5
2D/	Quem	se-	2D/	Quem	2F/	Quem	.	2d,<\	Quem	2a\	Quem
2D/	Ma-	-quun-	2D/	Ma-	2F/	Ma-	.	2d\	Ma-	2a\	Ma-
2E\	-ter	-t(ur)	2E\	-ter	2E/	-ter	.	2c#X/	-ter	2g/	-ter
=6	=6	=6	=6	=6	=6	=6	=6	=6	=6	=6	=6
2F\	Il-	at-	2F\	il-	2D/	il-	.	(2d\	Il-	1a	il-
2C#X/	.	.	2C#X/	.	1A	-la	.	2e\)	.	.	.
2D/	-la	-que	2D/	-la	.	.	.	2f\	-la	2a\	-la
=7	=7	=7	=7	=7	=7	=7	=7	=7	=7	=7	=7
(2G\	con-	lau-	2G\	con-	2B-X\	con-	.	4e\	con-	4g/	con-
.	.	.	.	.	.	.	.	4d\	.	(4f/	.
2A\)	.	.	2A\	.	2.A/	.	.	2d/	.	2.e/)	.
2AA/	-ci-	-di-	2AA/	-ci-	.	.	.	2c#X/	-ci-	.	.
.	.	.	.	.	4A/	-ci-	.	.	.	4e/	-ci-
=8	=8	=8	=8	=8	=8	=8	=8	=8	=8	=8	=8
1.D	-pit.	-bus	1.D,<	-pit,	1.A	-pit.	.	1.d,<	-pit,	1.f#X,<	-pit,
=9	=9	=9	=9	=9	=9	=9	=9	=9	=9	=9	=9
!LO:N:vis=0	!	!	!LO:N:vis=0	!	!LO:N:v is=0	!	!	!	!	!	!
0.r	.	.	0.r	.	0.r	.	.	1.r	.	2a\	Quae
.	.	.	.	.	.	.	.	.	.	2gn/	so-
.	.	.	.	.	.	.	.	.	.	2f/	-la
=10	=10	=10	=10	=10	=10	=10	=10	=10	=10	=10	=10
.	.	.	.	.	.	.	.	2e\	Quae	(2cc\	Vir-
.	.	.	.	.	.	.	.	2d\	so-	2bn\)	.
.	.	.	.	.	.	.	.	2c/	-la	2cc\	-go
!	!	!	!	!	!	!	!	!	!	!LO:LB:g=original	!
=11	=11	=11	=11	=11	=11	=11	=11	=11	=11	=11	=11
1.r	.	.	1.r	.	2A/	Quae	.	(2f\	vir-	1cc	Vir-
.	.	.	.	.	2G/	so-	.	2e\)	.	.	.
.	.	.	.	.	2F/	-la	.	2f\	-go	2cc,<\	-go
!	!	!	!	!	!	!	!	!LO:LB:g=original	!	!	!
=12	=12	=12	=12	=12	=12	=12	=12	=12	=12	=12	=12
2E\	Quae	post	2E\	Quae	2E/	Vir-	.	2g\	So-	2cc\	quae
2D/	so-	Te	2D/	so-	2F/	.	.	(2f\	-la	2bn\	so-
2C/	-la	ca-	2C/	-la	2G/	-go	.	2e\)	.	2cc\	-la
!	!	!	!	!	!LO:LB:g=original	!	!	!	!	!	!
=13	=13	=13	=13	=13	=13	=13	=13	=13	=13	=13	=13
1F	Vir-	-nen-	1F	Vir-	2F/	Vir-	.	(2c\	vir-	(2a\	Vir-
.	.	.	.	.	1G	-go	.	2d\)	.	2bn\)	.
2E\	-go	-tes	2E\	-go	.	.	.	2g\	-go	2cc\	-go
!	!	!	!LO:LB:g=original	!	!	!	!	!	!	!	!
=14	=14	=14	=14	=14	=14	=14	=14	=14	=14	=14	=14
2F\	par-	cur-	2F\	par-	2A/	par-	.	4f\	par-	1cc	par-
.	.	.	.	.	.	.	.	4e\	.	.	.
2G\	.	.	2G\	.	2.G/	.	.	2.d\	.	.	.
!LO:SIC:v:t=custos C	!	!	!	!	!	!	!	!	!	!	!
2GG/	-tu-	-si-	2GG/	-tu-	.	.	.	.	.	2bn\	-tu-
.	.	.	.	.	4G/	-tu-	.	4d\	-tu-	.	.
!LO:LB:g=original	!	!	!	!	!	!	!	!	!	!	!
=15	=15	=15	=15	=15	=15	=15	=15	=15	=15	=15	=15
1C	-rit	-tant	1C,<	-rit,	1G,<	-rit	.	1e,<	-rit	1cc,<	-rit,
2C#X/	haec	hym-	2C#X/	haec	2G/	haec	.	2e\	haec	2a\	haec
=16	=16	=16	=16	=16	=16	=16	=16	=16	=16	=16	=16
!LO:SIC:v:s=1C#	!	!	!	!	!	!	!	!	!	!	!
1C	Vo-	-nos-	1C#X	vo-	1Gn	vo-	.	1e	vo-	1a	vo-
!LO:SIC:v:s=2C#	!	!	!	!	!	!	!	!	!	!	!
2C/	-ta	-q(ue)	2C#/	-ta	2G/	-ta	.	2e\	-ta	2a\	-ta
=17	=17	=17	=17	=17	=17	=17	=17	=17	=17	=17	=17
(2D\	cle-	dul-	(2D\	cle-	2F/	cle-	.	2f\	cle-	(2dd\	cle-
2E\)	.	.	2E\)	.	2E/	.	.	2g\	.	2cc#X\)	.
2F\	-mens	-ces	2F\	-mens	2A\	.	.	2f\	.	2dd\	-mens
=18	=18	=18	=18	=18	=18	=18	=18	=18	=18	=18	=18
2G\	ac-	per-	2G\	ac-	2B-X\	mens	.	2e\	-mens	1dd	ac-
2A\	.	.	2A\	.	2.A/	ac-	.	2.e\	ac-	.	.
2AA/	-ci-	-so-	2AA/	-ci-	.	.	.	.	.	2cc#X\	-ci-
.	.	.	.	.	4A/	-ci-	.	4e\	-ci-	.	.
=19	=19	=19	=19	=19	=19	=19	=19	=19	=19	=19	=19
1D,<	-pe	-nant.	1D,<	-pe.	1A,<	-pe	.	1f#X,<	-pe	1dd,<	-pe.
2F\	Quae	post	2F\	quae	2A/	Quae	.	2cn/	quae	2a\	Quae
=20	=20	=20	=20	=20	=20	=20	=20	=20	=20	=20	=20
1F	so-	Te	1F	so-	1G	so-	.	1d	so-	1b-X	so-
2F\	-la	ca-	2F\	-la	2G/	-la	.	2d\	-la	2b-\	-la
=21	=21	=21	=21	=21	=21	=21	=21	=21	=21	=21	=21
1F	Vir-	-nen-	1F	Vir-	2A\	Vir-	.	1f	Vir-	(2cc\	Vir-
.	.	.	.	.	2B-X\	.	.	.	.	2dd\)	.
2F\	-go	-tes	2F\	-go	2A/	-go	.	2f\	-go	2cc\	-go
=22	=22	=22	=22	=22	=22	=22	=22	=22	=22	=22	=22
!	!	!	!	!	!	!	!	!	!	!LO:TX:t=P:problem:♭ above	!
(2G\	par-	cur-	(2G\	par-	2d\	par-	.	(2f\	par-	(2b-X\	par-
2E\)	.	.	2E\)	.	2.c\	.	.	2g\)	.	2g/)	.
2F\	-tu-	-ſi-	2F\	-tu-	.	.	.	2f\	-tu-	2a/	-tu-
.	.	.	.	.	4c\	-tu-	.	.	.	.	.
=23	=23	=23	=23	=23	=23	=23	=23	=23	=23	=23	=23
1.C,<	-rit,	-tant	1.C	-rit,	1.c	-rit,	.	1.e	-rit,	1.g,<	-rit
!	!	!	!	!	!LO:LB:g=original	!	!	!LO:LB:g=original	!	!LO:LB:g=original	!
=24	=24	=24	=24	=24	=24	=24	=24	=24	=24	=24	=24
2A\	haec	hym-	2A\	haec	2c\	haec	.	2f\	haec	2cc\	haec
2B-\	Vo-	-nos-	2B-\	Vo-	2.B-X\	Vo-	.	2f\	Vo-	2dd\	Vo-
2G\	-ta	-q(ue)	2G\	-ta	.	.	.	2e\	-ta	2b-\	-ta
.	.	.	.	.	4B-\	-ta	.	.	.	.	.
=25	=25	=25	=25	=25	=25	=25	=25	=25	=25	=25	=25
1F	cle-	dul-	1F	cle-	(4A/	cle-	.	1f	cle-	(4cc\	cle-
.	.	.	.	.	4G/	.	.	.	.	4b-\	.
.	.	.	.	.	4F/)	.	.	.	.	4a\	.
.	.	.	.	.	4G/	.	.	.	.	4b-\)	.
2F\	-mens	-ces	2F\	-mens	2A/	.	.	2f\	-mens	2cc\	.
=26	=26	=26	=26	=26	=26	=26	=26	=26	=26	=26	=26
2B-\	ac-	per-	2B-\	ac-	2d\	-mens	.	1f	ac-	(4b-\	-mens
.	.	.	.	.	.	.	.	.	.	4a\)	.
2c\	.	.	2c\	.	2.c\	ac-	.	.	.	2.g/	ac-
2C/	-ci-	-so-	2C/	-ci-	.	.	.	2e\	-ci-	.	.
.	.	.	.	.	4c\	-ci-	.	.	.	4g/	-ci-
=27	=27	=27	=27	=27	=27	=27	=27	=27	=27	=27	=27
0.F;	-pe.	-nant.	0.F;	-pe	0.c;	-pe	.	0.f;<	-pe.	0.a;	-pe.
!LO:LB:g=original	!	!	!LO:LB:g=original	!	!	!	!	!	!	!	!
=28||	=28||	=28||	=28||	=28||	=28||	=28||	=28||	=28||	=28||	=28||	=28||
*M3/2	*	*	*M3/2	*	*M3/2	*	*	*M3/2	*	*M3/2	*
2D\	2 Qui	4 Te	2D\	Qui	2A/	Qui	.	2f\	Qui	2dd\	Qui
2F\	per-	de-	2F\	per-	2F/	per-	.	2d\	per-	2a\	per-
2D/	-gis	-pre-	2D\	-gis	2A/	-gis	.	2f\	-gis	2dd\	-gis
=29	=29	=29	=29	=29	=29	=29	=29	=29	=29	=29	=29
4A\	in-	-ca-	(4A\	in-	1A	in-	.	1e	in-	1cc#X	in-
4B-\	.	.	4B-\	.	.	.	.	.	.	.	.
4A\	.	.	4A\	.	.	.	.	.	.	.	.
4G\	.	.	4G\)	.	.	.	.	.	.	.	.
2F\	-ter	-mur	2F\	-ter	2A/	-ter	.	2a\	-ter,	2dd,<\	-ter
=30	=30	=30	=30	=30	=30	=30	=30	=30	=30	=30	=30
*	*ij	*	*	*ij	*	*ij	*	*	*	*	*
2G\	in-	p(re)-	2G\	in-	2B-X\	in-	.	(4g\	in-	1dd	in-
.	.	.	.	.	.	.	.	4f\	.	.	.
2A\	.	-ca-	2A\	.	(2A/	-ter	.	2e\)	.	.	.
*	*	*	*	*	*	*Xij	*	*	*	*	*
2AA/	-ter	-mur	2AA/	-ter	2A/)	.	.	2e\	-ter	2cc#X,<\	-ter
*	*Xij	*	*	*Xij	*	*	*	*	*	*	*
=31	=31	=31	=31	=31	=31	=31	=31	=31	=31	=31	=31
2.D/	Li-	sup-	2.D/	Li-	2.A/	Li-	.	2.f#X\	Li-	2.dd\	li-
4D/	-li-	-pli-	4D/	-li-	4A/	-li-	.	4f#\	-li-	4dd\	-li-
2D/	-a	-ces	2D,</	-a	2A/	-a	.	2f#\	-a	2dd,<\	-a
=32	=32	=32	=32	=32	=32	=32	=32	=32	=32	=32	=32
2BBn/	se-	noſ-	2BBn/	se-	2Bn\	se-	.	2f#X\	se-	2dd\	Se-
2BB/	-pt(us)	-tris	2BB/	-ptus	2G,</	-ptus	.	2f#\	-ptus	2dd\	-ptus
2BB/	cho-	ut	2BB/	cho-	2G/	cho-	.	2f#\	cho-	2dd\	cho-
=33	=33	=33	=33	=33	=33	=33	=33	=33	=33	=33	=33
2.C/	-re-	ad-	(2.C/	-re-	(2G/	-re-	.	(2.e\	-re-	1ccn	-re-
.	.	.	.	.	4A/	.	.	.	.	.	.
4BB-/	.	.	4BB-/)	.	4B-/)	.	.	8f\L	.	.	.
.	.	.	.	.	.	.	.	8g\J)	.	.	.
2AA/	-is	-das	2AA/	-is	2c\	-is	.	(4a\	-is	2cc\	-is
.	.	.	.	.	.	.	.	4e\)	.	.	.
!	!	!	!	!	!	!	!	!LO:LB:g=original	!	!	!
=34	=34	=34	=34	=34	=34	=34	=34	=34	=34	=34	=34
!	!	!	!	!	!LO:TX:t=P:problem:♯ below	!	!	!	!	!	!
1BBn	Vir-	sen-	1BBn	Vir-	1F#X	vir-	.	1e	Vir-	1bn	Vir-
2BB/	-gi-	-si-	2BB/	-gi-	2F#/	-gi-	.	2d#X\	-gi-	2b\	-gi-
!	!	!	!	!	!	!	!	!	!	!LO:LB:g=original	!
=35	=35	=35	=35	=35	=35	=35	=35	=35	=35	=35	=35
!	!	!	!	!	!LO:TX:t=P:problem:♯ above	!	!	!	!	!	!
1.E,<	-num.	-bus.	1.E,<	-num	1.G#X,<	-num	.	1.e,<	-num	1.bn	-num,
!	!	!	!	!	!LO:LB:g=original	!	!	!	!	!	!
=36	=36	=36	=36	=36	=36	=36	=36	=36	=36	=36	=36
2G\	Spon-	nes-	2G\	Spon-	2d\	Spon-	.	2gn\	Spon-	2bn\	Spon-
2G\	-s(us)	-ci-	2G\	-sus	2d\	-sus	.	2g\	-sus	2b\	-sus
2Fn\	de-	-re	2Fn\	de-	2d\	de-	.	2g\	de-	2b\	de-
=37	=37	=37	=37	=37	=37	=37	=37	=37	=37	=37	=37
1E	-co-	pror-	1E	-co-	(4e\	-co-	.	1g	-co-	1cc	-co-
.	.	.	.	.	4d\	.	.	.	.	.	.
.	.	.	.	.	4c\	.	.	.	.	.	.
.	.	.	.	.	4B-\)	.	.	.	.	.	.
2F\	-rus	sus	2F\	-r(us)	2A/	-r(us)	.	2a\	-rus	[<2cc\	-rus
=38	=38	=38	=38	=38	=38	=38	=38	=38	=38	=38	=38
1D	Glo-	o-	1D	glo-	1A	glo-	.	1fn	glo-	2cc\]	.
.	.	.	.	.	.	.	.	.	.	2cc\	glo-
2D/	-ri-	-mni-	2D/	-ri-	2Bn\	-ri-	.	2f\	-ri-	2bn\	-ri-
=39	=39	=39	=39	=39	=39	=39	=39	=39	=39	=39	=39
1.C	-â.	-a	1.C	-â	1.Gn	-a	.	1.e	-a	1.cc,<	-a
!	!	!	!LO:LB:g=original	!	!	!	!	!	!	!	!
=40	=40	=40	=40	=40	=40	=40	=40	=40	=40	=40	=40
!LO:N:vis=00	!	!	!LO:N:vis=00	!	!	!	!LO:DY:a	!	!	!	!
00.r	.	.	00.r	.	2A/	Spon-	f	2e\	Spon-	2cc\	Spon-
.	.	.	.	.	2A/	-ſis-	.	2e\	-ſis-	2cc\	-sis-
.	.	.	.	.	2A/	-q(ue)	.	2e\	-que	2cc\	-que
=41	=41	=41	=41	=41	=41	=41	=41	=41	=41	=41	=41
.	.	.	.	.	1G#X	red-	.	1e	red-	1bn	red-
.	.	.	.	.	2A/	-dens	.	2e\	-dens	2cc\	.
=42	=42	=42	=42	=42	=42	=42	=42	=42	=42	=42	=42
*	*	*	*	*	*	*ij	*	*	*	*	*
.	.	.	.	.	2.Fn/	red-	.	2.f\	prae-	(2.a\	.
!	!	!	!	!	!	!	!	!	!	!LO:SIC:v:s=8bn	!
.	.	.	.	.	(4E/	-dens	.	4g\	.	8b-\L	.
*	*	*	*	*	*	*Xij	*	*	*	*	*
.	.	.	.	.	.	.	.	.	.	8cc\J)	.
.	.	.	.	.	2D/)	.	.	2a\	.	2dd\	-dens
=43	=43	=43	=43	=43	=43	=43	=43	=43	=43	=43	=43
.	.	.	.	.	1E	prae-	.	1a	.	1bn	prae-
.	.	.	.	.	2E/	-mi-	.	2g#X\	-mi-	2b\	-mi-
=44	=44	=44	=44	=44	=44	=44	=44	=44	=44	=44	=44
!	!	!	!	!	!LO:TX:t=P:problem:podwójna kreska taktowa	!	!	!LO:TX:a:t=P:problem:podwójna kreska taktowa	!	!	!
1.r	.	.	1.r	.	1.AA	-a.	.	1.a	-a.	1.cc#X,<	-a
!LO:LB:g=original	!	!	!	!	!	!	!	!	!	!	!
=45	=45	=45	=45	=45	=45	=45	=45	=45	=45	=45	=45
2c\	Spon-	nes-	2c\	Spon-	2G/	Spon-	.	2e\	Spon-	2een\	Spon-
2c\	-s(us)	-ci-	2c\	-sus	2c,<\	-sus	.	2gn\	-s(us)	2ee\	-ſus
!	!	!	!	!	!	!	!	!LO:SIC:v:t=custos f	!	!	!
2B-X\	de-	-re	2B-X\	de-	2G/	de-	.	2g\	de-	2dd\	de-
!	!	!	!	!	!	!	!	!LO:LB:g=original	!	!LO:LB:g=original	!
=46	=46	=46	=46	=46	=46	=46	=46	=46	=46	=46	=46
(2A\	-co-	pror-	(2A\	-co-	1A	-co-	.	1fn	-co-	1ccn	-co-
2F\)	.	.	2F\)	.	.	.	.	.	.	.	.
2B-\	-rus	-sus	2B-X\	-rus	(4B-X\	-rus	.	2f\	-rus	2dd\	-rus
.	.	.	.	.	4c\)	.	.	.	.	.	.
=47	=47	=47	=47	=47	=47	=47	=47	=47	=47	=47	=47
1G	glo-	o-	1G	glo-	2.d\	glo-	.	1f	glo-	1b-X	glo-
.	.	.	.	.	(4c\	-ri-	.	.	.	.	.
2G\	-ri-	-mni-	2G\	-ri-	2B-\)	.	.	2e\	-ri-	2b-\	-ri-
=48	=48	=48	=48	=48	=48	=48	=48	=48	=48	=48	=48
1.F	-â	-a	1.F,<	-â	1.c,<	-a	.	1.f	-a	1.a,<	-a
!	!	!	!	!	!LO:LB:g=original	!	!	!	!	!	!
=49	=49	=49	=49	=49	=49	=49	=49	=49	=49	=49	=49
2F#X\	Spon-	Cor-	2F#X\	Spon-	2d\	Spon-	.	2a\	Spon-	2cc\	Spon-
2F#\	-sis-	-rup-	2F#\	-sis-	2d\	-sis-	.	2a\	-ſis-	2cc\	-ſis-
2F#\	-q(ue)	-ti-	2F#\	-q(ue)	2c\	-q(ue)	.	2a\	-que	2cc\	-q(ue)
=50	=50	=50	=50	=50	=50	=50	=50	=50	=50	=50	=50
2.G\	red-	-o-	(2.G\	red-	(2B-X\	red-	.	(4g\	red-	(4b-X\	red-
.	.	.	.	.	.	.	.	4d\	.	4a\	.
.	.	.	.	.	2G/)	.	.	4e\	.	4b-\	.
4F\	.	.	4F\)	.	.	.	.	4f\)	.	4cc\)	.
4E\	.	.	4En\	.	4c\	.	.	4g\	.	4dd\	.
4D\	.	.	4D\	.	4B-\	.	.	4f\	.	4ff\	.
=51	=51	=51	=51	=51	=51	=51	=51	=51	=51	=51	=51
1C#X	.	.	1C#X	.	1A	.	.	1e	.	1een	.
2D/	-dens	-nis	2D,</	-dens	2A,</	-dens	.	2f\	.	[<2dd\	-dens
=52	=52	=52	=52	=52	=52	=52	=52	=52	=52	=52	=52
2G\	prae-	Vul-	2G\	prae-	2B-X\	prae-	.	2e,<\	-dens	2dd,<\]	.
2A\	.	.	2A\	.	2.A/	.	.	2e\	prae-	2dd\	prae-
2AA/	-mi-	-ne-	2AA/	-mi-	.	.	.	2e\	-mi-	2cc#X\	-mi-
.	.	.	.	.	4A/	-mi-	.	.	.	.	.
=53	=53	=53	=53	=53	=53	=53	=53	=53	=53	=53	=53
0.D;	-a.	-ra.	0.D;	-a.	0.A;	-a.	.	0.f#X;	-a.	0.dd;<	-a.
!	!	!	!LO:LB:g=original	!	!	!	!	!	!	!	!
=54||	=54||	=54||	=54||	=54||	=54||	=54||	=54||	=54||	=54||	=54||	=54||
*M3/2	*	*	*M3/2	*	*M3/2	*	*	*M3/2	*	*M3/2	*
!LO:TX:t=P:problem:brak rozpisanej partii w taktach 54-107; tekst 3. i 4. strofy podpisany pod 1. i 2.	!	!	!	!	!	!	!	!	!	!	!
1.ryy	.	.	2F\	Quo-	2c\	Quo-	.	2fn\	Quo-	2a\	Quo-
.	.	.	2A\	-cum-	2c\	-cum-	.	2f\	-cum-	2a\	-cum-
.	.	.	2F\	-q(ue)	2c\	-q(ue)	.	2f\	-q(ue)	2a\	-q(ue)
=55	=55	=55	=55	=55	=55	=55	=55	=55	=55	=55	=55
1.ryy	.	.	(4c\	ten-	1c	ten-	.	1e	ten-	1g	ten-
.	.	.	4d\	.	.	.	.	.	.	.	.
.	.	.	4c\	.	.	.	.	.	.	.	.
.	.	.	4B-\)	.	.	.	.	.	.	.	.
.	.	.	2A\	-dis	2c\	-dis	.	2f\	-dis	2a/	.
=56	=56	=56	=56	=56	=56	=56	=56	=56	=56	=56	=56
*	*	*	*	*ij	*	*ij	*	*	*ij	*	*
1.ryy	.	.	2B-\	ten-	(2d\	ten-	.	1f	ten-	1g	.
.	.	.	2c\	.	2c\)	.	.	.	.	.	.
.	.	.	2C/	-dis	2c\	-dis	.	2e\	-dis	2g\	-dis
*	*	*	*	*Xij	*	*Xij	*	*	*Xij	*	*
!	!	!	!	!	!	!	!	!LO:LB:g=original	!	!	!
=57	=57	=57	=57	=57	=57	=57	=57	=57	=57	=57	=57
1.ryy	.	.	2.F\	Vir-	2.c\	Vir-	.	2.f\	Vir-	2.a\	Vir-
.	.	.	4F\	-gi-	4c\	-gi-	.	4f\	-gi-	4a\	-gi-
.	.	.	2F\	-nes	2c\	-nes	.	2f\	-nes	2a\	-nes
!	!	!	!	!	!	!	!	!	!	!LO:LB:g=original	!
=58	=58	=58	=58	=58	=58	=58	=58	=58	=58	=58	=58
1.ryy	.	.	2D/	se-	2F/	se-	.	2d\	se-	2a\	Se-
.	.	.	2D/	-quun-	2F/	-quun-	.	2d\	-quun-	2a\	-quun-
.	.	.	2E\	-t(ur)	2E/	-t(ur)	.	2c#X/	-t(ur)	2g/	-t(ur)
=59	=59	=59	=59	=59	=59	=59	=59	=59	=59	=59	=59
1.ryy	.	.	2F\	at-	2D/	at-	.	(2d\	at-	1a	at-
.	.	.	2C#X/	.	1A	-(que)	.	2e\)	.	.	.
!	!	!	!	!	!LO:SIC:v:t=custos B-	!	!	!	!	!	!
.	.	.	2D/	-(que)	.	.	.	2f\	-(que)	2a\	-(que)
!	!	!	!	!	!LO:LB:g=original	!	!	!	!	!	!
=60	=60	=60	=60	=60	=60	=60	=60	=60	=60	=60	=60
1.ryy	.	.	2G\	Lau-	2B-X\	Lau-	.	4e\	Lau-	(4g/	lau-
.	.	.	.	.	.	.	.	4d\	.	4f/)	.
.	.	.	2A\	.	2.A/	.	.	2d/	.	2.e/	.
.	.	.	2AA/	-di-	.	.	.	2c#X/	-di-	.	.
.	.	.	.	.	4A/	-di-	.	.	.	4e/	-di-
=61	=61	=61	=61	=61	=61	=61	=61	=61	=61	=61	=61
!	!	!	!	!	!	!	!	!	!	!LO:TX:a:t=P:problem:podwójna kreska taktowa	!
1.ryy	.	.	1.D,<	-bus	1.A,<	-bus	.	1.d	-bus	1.f#X,<	-bus
=62	=62	=62	=62	=62	=62	=62	=62	=62	=62	=62	=62
!	!	!	!LO:N:vis=0	!	!LO:N:vis=0	!	!	!	!	!	!
1.ryy	.	.	0.r	.	0.r	.	.	1.r	.	2a\	post
.	.	.	.	.	.	.	.	.	.	2g/	Te
.	.	.	.	.	.	.	.	.	.	2fn/	ca-
=63	=63	=63	=63	=63	=63	=63	=63	=63	=63	=63	=63
1.ryy	.	.	.	.	.	.	.	2e\	post	(2cc\	-nen-
.	.	.	.	.	.	.	.	2d\	Te	2bn\)	.
.	.	.	.	.	.	.	.	2c/	ca-	2cc\	.
=64	=64	=64	=64	=64	=64	=64	=64	=64	=64	=64	=64
1.ryy	.	.	1.r	.	2A/	post	.	(2f\	-nen-	1cc	.
.	.	.	.	.	2G/	Te	.	2e\)	.	.	.
.	.	.	.	.	2F/	ca-	.	2f\	-tes	2cc,<\	-tes
=65	=65	=65	=65	=65	=65	=65	=65	=65	=65	=65	=65
1.ryy	.	.	2E\	post	2E/	-nen-	.	2g\	post	2cc\	post
.	.	.	2D/	Te	2F/	.	.	2f\	Te	2bn\	Te
.	.	.	2C/	ca-	2G/	.	.	2e\	ca-	2cc\	ca-
=66	=66	=66	=66	=66	=66	=66	=66	=66	=66	=66	=66
1.ryy	.	.	1F	-nen-	2F/	-tes	.	2c/	-nen-	(2a\	-nen-
.	.	.	.	.	1G	.	.	2d\	.	2bn\)	.
.	.	.	2E\	-tes	.	.	.	2g\	-tes	2cc\	-tes
!	!	!	!LO:LB:g=original	!	!	!	!	!	!	!	!
=67	=67	=67	=67	=67	=67	=67	=67	=67	=67	=67	=67
1.ryy	.	.	2F\	cur-	2A/	cur-	.	(4f\	cur-	1cc	cur-
.	.	.	.	.	.	.	.	4e\)	.	.	.
.	.	.	2G\	.	2.G/	.	.	2.d\	.	.	.
.	.	.	2GG/	-si-	.	.	.	.	.	2bn\	-ſi-
!	!	!	!	!	!	!	!	!	!	!LO:SIC:v:t=custos cc	!
.	.	.	.	.	4G/	-si-	.	4d\	-ſi-	.	.
!	!	!	!	!	!	!	!	!	!	!LO:LB:g=original	!
=68	=68	=68	=68	=68	=68	=68	=68	=68	=68	=68	=68
1.ryy	.	.	1C,<	-tant;	1G,<	-tant,	.	1e,<	-tant,	1cc,<	-tant
.	.	.	2C#X/	hym-	2G/	hym-	.	2e\	hy-	2a\	hym-
!	!	!	!	!	!	!	!	!LO:LB:g=original	!	!	!
=69	=69	=69	=69	=69	=69	=69	=69	=69	=69	=69	=69
1.ryy	.	.	1C#X	-nos-	1G	-nos-	.	1e	-mnos-	1a	-nos-
.	.	.	2C#/	-q(ue)	2G/	-q(ue)	.	2e\	-q(ue)	2a\	-q(ue)
=70	=70	=70	=70	=70	=70	=70	=70	=70	=70	=70	=70
1.ryy	.	.	(2D\	dul-	2F/	dul-	.	2f\	dul-	(2dd\	dul-
.	.	.	2E\)	.	2E/	.	.	2g\	.	2cc#X\)	.
.	.	.	2F\	-ces	2A\	-ces	.	2f\	.	2dd\	-ces
=71	=71	=71	=71	=71	=71	=71	=71	=71	=71	=71	=71
1.ryy	.	.	2G\	per-	(2B-X\	per-	.	2e,<\	-ces	1dd	per-
.	.	.	2A\	.	2.A/)	.	.	2e\	per-	.	.
.	.	.	2AA/	-so-	.	.	.	2e\	-ſo-	2cc#X\	-ſo-
.	.	.	.	.	4A/	-ſo-	.	.	.	.	.
=72	=72	=72	=72	=72	=72	=72	=72	=72	=72	=72	=72
1.ryy	.	.	1D,<	-nant.	1A,<	-nant	.	1f#X,<	-nant.	1dd,<	-nant.
.	.	.	2F\	post	2A/	post	.	2cn/	post	2a\	post
!	!	!	!	!	!LO:LB:g=original	!	!	!	!	!	!
=73	=73	=73	=73	=73	=73	=73	=73	=73	=73	=73	=73
1.ryy	.	.	1F	Te	1G	Te	.	1d	Te	1b-X	Te
.	.	.	2F\	ca-	2G/	ca-	.	2d\	ca-	2b-\	ca-
=74	=74	=74	=74	=74	=74	=74	=74	=74	=74	=74	=74
1.ryy	.	.	1F	-nen-	2A/	-nen-	.	1f	-nen-	(2cc\	-nen-
.	.	.	.	.	2B-X/	.	.	.	.	2dd\)	.
.	.	.	2F\	-tes	2A/	-tes	.	2f\	-tes	2cc,<\	-tes
=75	=75	=75	=75	=75	=75	=75	=75	=75	=75	=75	=75
1.ryy	.	.	(2G\	cur-	2d\	cur-	.	2f\	cur-	(2b-X\	cur-
.	.	.	2E\)	.	2.c\	.	.	2g\	.	2g/)	.
.	.	.	2F\	-ſi-	.	.	.	2f\	-ſi-	2a\	-ſi-
.	.	.	.	.	4c\	-si-	.	.	.	.	.
=76	=76	=76	=76	=76	=76	=76	=76	=76	=76	=76	=76
1.ryy	.	.	1.C,<	-tant,	1.c,<	-tant,	.	1.e,<	-tant,	1.g,<	-tant
=77	=77	=77	=77	=77	=77	=77	=77	=77	=77	=77	=77
1.ryy	.	.	2A\	hym-	2c\	hym-	.	2f\	hym-	2cc\	hym-
.	.	.	2B-\	-nos-	2.B-X/	-nos-	.	2f\	-nos-	2dd\	-nos-
.	.	.	2G\	-q(ue)	.	.	.	2e\	-q(ue)	2b-\	-q(ue)
.	.	.	.	.	4B-/	-q(ue)	.	.	.	.	.
=78	=78	=78	=78	=78	=78	=78	=78	=78	=78	=78	=78
1.ryy	.	.	1F	dul-	4A/	dul-	.	1f	dul-	(4cc\	dul-
.	.	.	.	.	4G/	.	.	.	.	4b-\	.
.	.	.	.	.	4F/	.	.	.	.	4a\	.
.	.	.	.	.	4G/	.	.	.	.	4b-\)	.
.	.	.	2F\	-ces	2A/	.	.	2f\	-ces	2cc\	-ces
=79	=79	=79	=79	=79	=79	=79	=79	=79	=79	=79	=79
1.ryy	.	.	2B-\	per-	2d\	-ces	.	1f	per-	(4b-\	per-
.	.	.	.	.	.	.	.	.	.	4a\)	.
.	.	.	2c\	.	2.c\	per-	.	.	.	2.g/	.
.	.	.	2C/	-ſo-	.	.	.	2e\	-ſo-	.	.
.	.	.	.	.	4c\	-so-	.	.	.	4g/	-ſo-
=80	=80	=80	=80	=80	=80	=80	=80	=80	=80	=80	=80
0.ryy	.	.	0.F;	-nant	0.c;<	-nant.	.	0.f;	-nant.	0.a;	-nant
!	!	!	!LO:PB:g=original	!	!LO:PB:g=original	!	!	!LO:PB:g=original	!	!LO:PB:g=original	!
=81||	=81||	=81||	=81||	=81||	=81||	=81||	=81||	=81||	=81||	=81||	=81||
*M3/2	*	*	*M3/2	*	*M3/2	*	*	*M3/2	*	*M3/2	*
1.ryy	.	.	2D/	Te	2A/	Te	.	2f\	Te	2dd\	Te
.	.	.	2F\	de-	2F/	de-	.	2d\	de-	2a\	de-
.	.	.	2D/	-pre-	2A/	-pre-	.	2f\	-pre-	2dd\	-pre-
=82	=82	=82	=82	=82	=82	=82	=82	=82	=82	=82	=82
1.ryy	.	.	(4A\	-ca-	1A	-ca-	.	1e	-ca-	1cc#X	-ca-
.	.	.	4B-\	.	.	.	.	.	.	.	.
.	.	.	4A\)	.	.	.	.	.	.	.	.
.	.	.	4G\	.	.	.	.	.	.	.	.
.	.	.	2F,<\	-mur	2A\	-mur	.	2a\	-mur	2dd\	-mur
=83	=83	=83	=83	=83	=83	=83	=83	=83	=83	=83	=83
1.ryy	.	.	2G\	pre-	2B-X\	pre-	.	4g\	pre-	2dd\	pre-
.	.	.	.	.	.	.	.	4f\	.	.	.
.	.	.	2A\	-ca-	2A/	-ca-	.	2e\	-ca-	2dd\	-ca-
.	.	.	2AA/	-mur	2A/	-mur	.	2e\	-mur	2cc#X\	-mur
=84	=84	=84	=84	=84	=84	=84	=84	=84	=84	=84	=84
1.ryy	.	.	2.D/	Sup-	2.A/	Sup-	.	2.f#X\	Sup-	2.dd\	Sup-
.	.	.	4D/	-pli-	4A/	-pli-	.	4f#\	-pli-	4dd\	-pli-
.	.	.	2D,</	-ces	2A/	-ces	.	2f#\	-ces	2dd\	-ces
=85	=85	=85	=85	=85	=85	=85	=85	=85	=85	=85	=85
1.ryy	.	.	2BBn/	noſ-	2Gn/	noſ-	.	2f#X\	noſ-	2dd\	noſ-
.	.	.	2BB/	-tris	2G/	-tris	.	2f#\	-tris	2dd\	-tris
.	.	.	2BB/	ut	2G/	ut	.	2f#\	ut	2dd\	ut
=86	=86	=86	=86	=86	=86	=86	=86	=86	=86	=86	=86
1.ryy	.	.	(2.C/	ad-	2G/	ad-	.	(2.e\	ad-	1ccn	ad-
.	.	.	.	.	4A\	.	.	.	.	.	.
.	.	.	4BB-X/)	.	4B-\	.	.	8f\L	.	.	.
.	.	.	.	.	.	.	.	8g\J)	.	.	.
.	.	.	2AA/	-das	2c\	-das	.	4a\	-das	2cc\	-das
.	.	.	.	.	.	.	.	4e\	.	.	.
=87	=87	=87	=87	=87	=87	=87	=87	=87	=87	=87	=87
1.ryy	.	.	1BBn	Sen-	1F#X	Sen-	.	1e	Sen-	1bn	Sen-
.	.	.	2BB/	-ſi-	2F#/	-ſi-	.	2d#X\	-si-	2b\	-si-
=88	=88	=88	=88	=88	=88	=88	=88	=88	=88	=88	=88
!	!	!	!	!	!LO:TX:a:t=P:problem:podwójna kreska taktowa	!	!	!	!	!LO:SIC:v:s=1.bn	!
1.ryy	.	.	1.E,<	-bus	1.G#X	-bus	.	1.e	-bus	1.b-	-bus:
=89	=89	=89	=89	=89	=89	=89	=89	=89	=89	=89	=89
1.ryy	.	.	2G\	neſ-	2d\	nes-	.	2gn\	neſ-	2bn\	neſ-
.	.	.	2G\	-ci-	2d\	-ci-	.	2g\	-ci-	2b\	-ci-
!	!	!	!LO:SIC:v:t=custos E	!	!LO:SIC:v:t=custos e	!	!	!	!	!	!
.	.	.	2Fn\	-re	2d\	-re	.	2g\	-re	2b\	-re
!	!	!	!LO:LB:g=original	!	!LO:LB:g=original	!	!	!LO:LB:g=original	!	!	!
=90	=90	=90	=90	=90	=90	=90	=90	=90	=90	=90	=90
1.ryy	.	.	1E	pror-	(4e\	pror-	.	1g	pror-	1cc	pror-
.	.	.	.	.	4d\	.	.	.	.	.	.
.	.	.	.	.	4c\	.	.	.	.	.	.
.	.	.	.	.	4B-)\	.	.	.	.	.	.
!	!	!	!	!	!	!	!	!	!	!LO:SIC:v:t=custos cc	!
.	.	.	2F\	-sus	2A/	-sus	.	2a\	-sus	[<2cc\	-sus
=91	=91	=91	=91	=91	=91	=91	=91	=91	=91	=91	=91
!	!	!	!	!	!	!	!	!	!	!LO:TX:t=P:problem:brak zakończenia ligatury	!
1.ryy	.	.	1D	o-	1A	o-	.	1fn	O-	1cc]	O-
.	.	.	2D/	-mni-	2Bn\	-mni-	.	2f\	-mni-	2bn\	-mni-
=92	=92	=92	=92	=92	=92	=92	=92	=92	=92	=92	=92
!	!	!	!	!	!LO:TX:a:t=P:problem:podwójna kreska taktowa	!	!	!	!	!	!
1.ryy	.	.	1.C,<	-a	1.Gn	-a	.	1.e	-a	1.cc	-a
=93	=93	=93	=93	=93	=93	=93	=93	=93	=93	=93	=93
!	!	!	!LO:N:vis=00	!	!	!	!	!	!	!	!
1.ryy	.	.	00.r	.	2A/	Cor-	.	2e\	Cor-	2cc\	Cor-
.	.	.	.	.	2A/	-rup-	.	2e\	-rup-	2cc\	-rup-
.	.	.	.	.	2A/	-ti-	.	2e\	-ti-	2cc\	-ti-
=94	=94	=94	=94	=94	=94	=94	=94	=94	=94	=94	=94
1.ryy	.	.	.	.	1G#X	-o-	.	1e	-o-	1bn	-o-
.	.	.	.	.	2A/	-nis	.	2e\	-nis	2cc\	-nis
=95	=95	=95	=95	=95	=95	=95	=95	=95	=95	=95	=95
1.ryy	.	.	.	.	2.Fn/	vul-	.	2.f\	Vul-	(2.a\	Vul-
.	.	.	.	.	4E/	.	.	4g\	.	8b-\L	.
.	.	.	.	.	.	.	.	.	.	8cc\J)	.
.	.	.	.	.	2D/	.	.	2a\	.	2dd\	.
=96	=96	=96	=96	=96	=96	=96	=96	=96	=96	=96	=96
1.ryy	.	.	.	.	1E	.	.	1a	.	1bn	.
.	.	.	.	.	2E/	-ne-	.	2g#X\	-ne-	2b\	-ne-
=97	=97	=97	=97	=97	=97	=97	=97	=97	=97	=97	=97
1.ryy	.	.	1.r	.	1.AA	-ra	.	1.a	-ra	1.cc#X	-ra
=98	=98	=98	=98	=98	=98	=98	=98	=98	=98	=98	=98
1.ryy	.	.	2c\	neſ-	2G/	neſ-	.	2e\	nes-	2een\	nes-
.	.	.	2c\	-ci-	2c\	-ci-	.	2g\	-ci-	2ee\	-ci-
.	.	.	2B-X\	-re	2G/	-re	.	2g\	-re	2dd\	-re
=99	=99	=99	=99	=99	=99	=99	=99	=99	=99	=99	=99
1.ryy	.	.	(2A\	pror-	1A	pror-	.	1fn	pror-	1ccn	pror-
.	.	.	2F\)	.	.	.	.	.	.	.	.
.	.	.	2B-X\	-sus	4B-X\	-sus	.	2f\	-sus	2dd\	-sus
!	!	!	!	!	!LO:SIC:v:t=custos d	!	!	!	!	!	!
.	.	.	.	.	4c\	.	.	.	.	.	.
!	!	!	!	!	!LO:LB:g=original	!	!	!	!	!	!
=100	=100	=100	=100	=100	=100	=100	=100	=100	=100	=100	=100
1.ryy	.	.	1G	o-	2.d\	O-	.	1f	o-	1b-X	o-
.	.	.	.	.	4c\	.	.	.	.	.	.
.	.	.	2G\	-mni-	2B-X\	-mni-	.	2e\	-mni-	2b-\	-mni-
=101	=101	=101	=101	=101	=101	=101	=101	=101	=101	=101	=101
1.ryy	.	.	1.F,<	-a	1.c	-a	.	1.f	-a	1.a	-a
!	!	!	!	!	!	!	!	!LO:LB:g=original	!	!LO:LB:g=original	!
=102	=102	=102	=102	=102	=102	=102	=102	=102	=102	=102	=102
1.ryy	.	.	2F#X\	Cor-	2d\	Cor-	.	2a\	Cor-	2cc\	Cor-
.	.	.	2F#\	-rup-	2d\	-rup-	.	2a\	-rup-	2cc\	-rup-
.	.	.	2F#\	-ti-	2c\	-ti-	.	2a\	-ti-	2cc\	-ti-
=103	=103	=103	=103	=103	=103	=103	=103	=103	=103	=103	=103
1.ryy	.	.	2.G\	-o-	2B-X\	-o-	.	4g\	-o-	(4b-X\	-o-
.	.	.	.	.	.	.	.	(4d\	.	4a\	.
.	.	.	.	.	2G/	.	.	4e\	.	4b-\	.
.	.	.	4F\	.	.	.	.	4f\)	.	4cc\	.
.	.	.	4En\	.	4c\	.	.	4g\	.	4dd\)	.
!	!	!	!LO:SIC:v:t=custos C#	!	!	!	!	!	!	!	!
.	.	.	4D\	.	4B-\	.	.	4f\	.	4ff\	.
!	!	!	!LO:LB:g=original	!	!	!	!	!	!	!	!
=104	=104	=104	=104	=104	=104	=104	=104	=104	=104	=104	=104
1.ryy	.	.	1C#X	.	1A	.	.	1e	.	1een	.
.	.	.	2D/	-nis	2A/	-nis	.	2f\	.	[<2dd\	-nis
=105	=105	=105	=105	=105	=105	=105	=105	=105	=105	=105	=105
1.ryy	.	.	2G\	Vul-	2B-X\	Vul-	.	2e\	-nis	2dd\]	.
.	.	.	2A\	.	2A/	.	.	2e\	Vul-	2dd\	Vul-
.	.	.	2AA/	-ne-	2A/	-ne-	.	2e\	-ne-	2cc#X\	-ne-
=106	=106	=106	=106	=106	=106	=106	=106	=106	=106	=106	=106
!	!	!	!	!	!	!	!	!LO:TX:t=P:problem:♯ below	!	!	!
0.ryy	.	.	0.D;	-ra.	0.A;	-ra.	.	0.f#X;	-ra	0.dd;<	-ra.
=107||	=107||	=107||	=107||	=107||	=107||	=107||	=107||	=107||	=107||	=107||	=107||
*M3/2	*	*	*M3/2	*	*M3/2	*	*	*M3/2	*	*M3/2	*
2F\	5. Vir-	.	2F\	Vir-	2c\	Vir-	.	2fn\	Vir-	2a\	Vir-
2A\	-tus,	.	2A\	-tus	2c\	-tus	.	2f\	-tus	2a,<\	-tus
2F\	ho-	.	2F\	ho-	2c\	ho-	.	2f\	ho-	2a\	ho-
=108	=108	=108	=108	=108	=108	=108	=108	=108	=108	=108	=108
4c\	-nor,	.	(4c\	-nor	1c,<	-nor	.	1e,<	-nor	1gn,	-nor
4d\	.	.	4d\	.	.	.	.	.	.	.	.
4c\	.	.	4c\	.	.	.	.	.	.	.	.
4B-\	.	.	4B-X\)	.	.	.	.	.	.	.	.
2A,<\	laus	.	2A\	laus,	2c\	laus	.	2f\	laus	2a\	laus
=109	=109	=109	=109	=109	=109	=109	=109	=109	=109	=109	=109
2B-\	ho-	.	2B-\	ho-	2d\	ho-	.	2f\	ho-	2g\	ho-
2c,<\	-nor	.	2c,<\	-nor	2c,<\	-nor	.	2f,<\	-nor	2g\	-nor
!	!	!	!	!	!LO:SIC:v:t=custos c	!	!	!	!	!	!
2C/	laus	.	2C/	laus	2c\	laus	.	2e\	laus	2g\	laus
!	!	!	!	!	!LO:LB:g=original	!	!	!	!	!	!
=110	=110	=110	=110	=110	=110	=110	=110	=110	=110	=110	=110
2.F\	glo-	.	2.F\	glo-	2.c\	Glo-	.	2.f\	glo-	2.a\	glo-
4F\	-ri-	.	4F\	-ri-	4c\	-ri-	.	4f\	-ri-	4a\	-ri-
!	!	!	!	!	!	!	!	!LO:SIC:v:t=custos d	!	!LO:SIC:v:t=custos a	!
2F\	-a	.	2F\	-a	2c\	-a	.	2f\	-a	2a\	-a
!LO:LB:g=original	!	!	!	!	!	!	!	!LO:LB:g=original	!	!LO:LB:g=original	!
=111	=111	=111	=111	=111	=111	=111	=111	=111	=111	=111	=111
2D/	DE-	.	2D/	De-	2F/	DE-	.	2d\	DE-	2a\	DE-
2D/	-O	.	2D/	-o	2F/	-O	.	2d\	-O	2a\	-O
2E\	Pa-	.	2E/	Pa-	2E/	.	.	2c#X/	Pa-	2g\	.
=112	=112	=112	=112	=112	=112	=112	=112	=112	=112	=112	=112
2F\	-tri	.	(2F\	-tri-	2D/	Pa-	.	(2d\	-tri	1a,<	Pa-
2C#X/	.	.	2C#X/)	.	1A	-tri	.	2e\)	.	.	.
2D/	cum	.	2D/	-cum	.	.	.	2f\	cum	2a\	-tri
!	!	!	!LO:LB:g=original	!	!	!	!	!	!	!	!
=113	=113	=113	=113	=113	=113	=113	=113	=113	=113	=113	=113
2G\	Fi-	.	2G\	Fi-	2B-X\	cum	.	(4e\	Fi-	4g/	cum
.	.	.	.	.	.	.	.	4d\)	.	4f/	.
2A\	.	.	2A\	.	2.A/	Fi-	.	2.d\	.	2.e/	Fi-
2AA/	-li-	.	2AA/	-li-	.	.	.	.	.	.	.
.	.	.	.	.	4A/	-li-	.	4c#X/	-li-	4e/	-li-
=114-	=114	=114	=114	=114	=114	=114	=114	=114	=114	=114	=114
!	!	!	!	!	!	!	!	!	!	!LO:TX:a:t=P:problem:podwójna kreska taktowa	!
1.D	-o.	.	1.D,<	-o,	1.A	-o	.	1.d,<	-o	1.f#X	-o
=115	=115	=115	=115	=115	=115	=115	=115	=115	=115	=115	=115
!LO:N:vis=0	!	!	!LO:N:vis=0	!	!LO:N:vis=0	!	!	!	!	!	!
0.r	.	.	0.r	.	0.r	.	.	1.r	.	2a\	San-
.	.	.	.	.	.	.	.	.	.	2g\	-cto
.	.	.	.	.	.	.	.	.	.	2fn/	si-
=116	=116	=116	=116	=116	=116	=116	=116	=116	=116	=116	=116
.	.	.	.	.	.	.	.	2e\	San-	(2cc\	-mul
.	.	.	.	.	.	.	.	2d\	-cto	2bn,<\)	.
.	.	.	.	.	.	.	.	2c/	si-	2cc\	San-
=117	=117	=117	=117	=117	=117	=117	=117	=117	=117	=117	=117
1.r	.	.	1.r	.	2A/	San-	.	(2f\	-mul	1cc,<	-cto
.	.	.	.	.	2G/	-cto	.	2e,<\)	.	.	.
.	.	.	.	.	2F/	si-	.	2f\	san-	2cc\	Si-
=118	=118	=118	=118	=118	=118	=118	=118	=118	=118	=118	=118
2E\	San-	.	2E\	San-	(2E/	-mul	.	(2g\	-cto	(2cc\	-mul
2D/	.	.	2D/	-cto	2F/)	.	.	2f\)	.	2bn\)	.
2C/	-cto	.	2C/	si-	2G/	si-	.	2e\	si-	2cc\	si-
=119	=119	=119	=119	=119	=119	=119	=119	=119	=119	=119	=119
1F	si-	.	1F,<	-mul	2F/	-mul	.	2c/	-mul	(2a\	-mul
.	.	.	.	.	1G	Pa-	.	2d\	.	2bn\)	.
2E\	-mul	.	2E\	Pa-	.	.	.	2g\	Pa-	2cc\	Pa-
!	!	!	!	!	!	!	!	!	!	!LO:LB:g=original	!
=120-	=120	=120	=120	=120	=120	=120	=120	=120	=120	=120	=120
2F\	Pa-	.	(2F\	-ra-	2A/	-ra-	.	4f\	-ra-	1cc	-ra-
.	.	.	.	.	.	.	.	4e\	.	.	.
2G\	-ra-	.	2G\)	.	2.G/	.	.	2.d\	.	.	.
2GG/	-cli-	.	2GG/	-cli-	.	.	.	.	.	2bn\	-cli-
!	!	!	!	!	!	!	!	!LO:SIC:v:t=custos e	!	!	!
.	.	.	.	.	4G/	-cli-	.	4d\	-cli-	.	.
!	!	!	!	!	!LO:LB:g=original	!	!	!LO:LB:g=original	!	!	!
=121	=121	=121	=121	=121	=121	=121	=121	=121	=121	=121	=121
1C	-to	.	1C,<	-to,	1G	-to	.	1e,<	-to	1cc,<	-to
2C#X/	in	.	2C#X/	in	2G/	in	.	2e\	in	2a\	in
=122	=122	=122	=122	=122	=122	=122	=122	=122	=122	=122	=122
1C#X	sem-	.	1C#X	sem-	1G	Sem-	.	1e	Sem-	1a	Sem-
2C#/	-pi-	.	2C#/	-pi-	2G/	-pi-	.	2e\	-pi-	2a\	-pi-
=123	=123	=123	=123	=123	=123	=123	=123	=123	=123	=123	=123
(2D\	-ter-	.	(2D\	-ter-	(2Fn/	-ter-	.	(2f\	-ter-	(2dd\	-ter-
2E\)	.	.	2E\)	.	2E/)	.	.	2g\)	.	2cc#X\)	.
!	!	!	!LO:SIC:v:t=custos G	!	!	!	!	!	!	!	!
2F\	-na	.	2F\	-na	2A\	-na	.	2f\	.	2dd\	-na
!	!	!	!LO:LB:g=original	!	!	!	!	!	!	!	!
=124	=124	=124	=124	=124	=124	=124	=124	=124	=124	=124	=124
2G\	sae-	.	2G\	sae-	2B-X\	sae-	.	2e\	-na	1dd	Sae-
2A\	.	.	2A\	.	2.A/	.	.	2.e\	sae-	.	.
2AA/	-cu-	.	2AA/	-cu-	.	.	.	.	.	2cc#X\	-cu-
.	.	.	.	.	4A/	-cu-	.	4e\	-cu-	.	.
=125	=125	=125	=125	=125	=125	=125	=125	=125	=125	=125	=125
1D,<	-la	.	1D,<	-la.	1A,<	-la	.	1f#X,<	-la	1dd,<	-la.
2F\	S(an)-	.	2F\	San-	2A/	San-	.	2cn/	San-	2a\	San-
=126	=126	=126	=126	=126	=126	=126	=126	=126	=126	=126	=126
1F	-cto	.	1F	-cto	1G	-cto	.	1d,<	-cto	1b-X,<	-cto
2F\	si-	.	2F\	si-	2G/	si-	.	2d\	si-	2b-\	si-
=127	=127	=127	=127	=127	=127	=127	=127	=127	=127	=127	=127
1F,<	-mul	.	1F,<	-mul	(2A\	-mul	.	1fn,<	-mul	(2cc\	-mul
.	.	.	.	.	2B-X\)	.	.	.	.	2dd\)	.
2F\	Pa-	.	2F\	Pa-	2A\	Pa-	.	2f\	Pa-	2cc\	Pa-
=128	=128	=128	=128	=128	=128	=128	=128	=128	=128	=128	=128
(2G\	-ra-	.	(2G\	-ra-	2d\	-ra-	.	2f\	-ra-	2b-X\	-ra-
2E\)	.	.	2En\)	.	2.c\	.	.	2g\	-cli-	2g/	.
2F\	-cli-	.	2F\	-cli-	.	.	.	2f\	-to,	2a\	-cli-
.	.	.	.	.	4c\	-cli-	.	.	.	.	.
=129	=129	=129	=129	=129	=129	=129	=129	=129	=129	=129	=129
!	!	!	!	!	!LO:SIC:v:t=custos c	!	!	!	!	!	!
1.C	-to,	.	1.C,<	-to	1.c	-to	.	1.e,<	in	1.g	-to
!LO:PB:g=original	!	!	!	!	!LO:LB:g=original	!	!	!	!	!LO:LB:g=original	!
=130	=130	=130	=130	=130	=130	=130	=130	=130	=130	=130	=130
!LO:TX:a:t=P:problem:odtąd partia na skanie 0010 do góry nogami	!	!	!	!	!	!	!	!	!	!	!
2A\	in	.	2A\	in	2c\	in	.	2f\	Sem-	2cc\	in
2B-X\	Sem-	.	2B-X\	ſem-	2.B-X\	Sem-	.	2f\	-pi-	2dd\	Sem-
2G\	-pi-	.	2G\	-pi-	.	.	.	2e\	.	2b-X\	-pi-
.	.	.	.	.	4B-\	-pi-	.	.	.	.	.
=131	=131	=131	=131	=131	=131	=131	=131	=131	=131	=131	=131
(4F\	-ter-	.	1F	-ter-	(4A/	-ter-	.	1f	-ter-	(4cc\	-ter-
4E\	.	.	.	.	4G/	.	.	.	.	4b-\	.
4F\	.	.	.	.	4F/	.	.	.	.	4a\	.
4G\	.	.	.	.	4G/)	.	.	.	.	4b-\	.
4A\)	.	.	2F\	-na	2A/	-na	.	2f\	-na	2cc\)	.
4F\	.	.	.	.	.	.	.	.	.	.	.
!	!	!	!	!	!	!	!	!LO:LB:g=original	!	!	!
=132	=132	=132	=132	=132	=132	=132	=132	=132	=132	=132	=132
2B-X,<\	-na	.	2B-X\	sae-	2d\	Sae-	.	1f	Sae-	(4b-\	-na
.	.	.	.	.	.	.	.	.	.	4a\)	.
2c\	sae-	.	2c\	.	2.c\	.	.	.	.	2.g/	Sae-
2C/	-cu-	.	2C/	-cu-	.	.	.	2e\	-cu-	.	.
.	.	.	.	.	4c\	-cu-	.	.	.	4g/	-cu-
=133	=133	=133	=133	=133	=133	=133	=133	=133	=133	=133	=133
!	!	!	!	!	!LO:N:vis=0.	!	!	!LO:N:vis=0.	!	!LO:N:vis=0.	!
1.F,<	-la.	.	1.F	-la.	1.c;	-la.	.	1.f;	-la	1.a;	-la.
!	!	!	!LO:LB:g=original	!	!	!	!	!	!	!	!
=134||	=134||	=134||	=134||	=134||	=134||	=134||	=134||	=134||	=134||	=134||	=134||
0.BB-	A-	.	0.BB-	A-	0.d	A-	.	0.f	A-	0.b-	A-
=135-	=135	=135	=135-	=135	=135-	=135	=135	=135-	=135	=135-	=135
!LO:TX:b:t=O. ad M. D. G	!	!	!LO:TX:b:t=O. ad M. D. G	!	!LO:TX:b:t=O ad M. D. G	!	!	!LO:TX:b:t=O ad M. D. G	!	!LO:TX:b:t=O ad M D. G	!
0.F;	-men.	.	0.F;	-men.	0.c;	-men.	.	0.f;	-men.	0.a;	-men.
==	==	==	==	==	==	==	==	==	==	==	==
*-	*-	*-	*-	*-	*-	*-	*-	*-	*-	*-	*-
!!!system-decoration: [(s1,s2,s3,s4,s5)]
!!!RDF**kern: < = below
!!!RDF**dynam: f = "For."
!!!AIN: 1 alto 2 empty 1 tenor 1 vox
!!!ENC: Marta Lawrence
!!!END: 2021-02-18
!!!ENC: Andrzej Borzym
!!!END: 2021-02-11
